X:1
T:Veracruz, CMD
T:Veracruz, CMD
T:John T. Camp, 1893
T:Public Domain Courtesy of the Cyber Hymnal™
C:John T. Camp, 1893
Z:Public Domain
Z:Courtesy of the Cyber Hymnal™
%%score ( 1 2 ) ( 3 4 )
L:1/8
Q:1/4=100
M:6/8
K:Ab
V:1 treble 
V:2 treble 
V:3 bass 
V:4 bass 
V:1
 [CE] | [Ec]2 [Ec] [CA]2 [CA] | [DB]2 [DB] [DF]2 [DF] | [DG]2 [DG] [DF]2 [DE] | [CE]3- [CE]2 [CE] | %5
 [Ec]2 [Ec] [CA]2 [CA] | [DB]2 [DB] [DF]2 [DF] | [DE]2 [DE] (EF)[DG] | [CA]3- [CA]2 [EA] | %9
 [DG]2 [CA] [EB]2 [EB] | [EA]2 [EB] [Ec]2 [Ec] | [Ed]2 [Ed] [Ec]2 [EA] | [EB]3- [EB]2 [EB] | %13
 [Ec]2 [Ec] [CA]2 [Ec] | [Fd]2 [Fd] !fermata![DF]2 [DF] | [DE]2 [DE] (EF)[DG] | [CA]3- [CA]2 |] %17
V:2
 x | x6 | x6 | x6 | x6 | x6 | x6 | x3 D2 x | x6 | x6 | x6 | x6 | x6 | x6 | x6 | x3 D2 x | x5 |] %17
V:3
 [A,,A,] | [A,,A,]2 [A,,A,] [A,,A,]2 [A,,A,] | [D,F,]2 [D,F,] [D,A,]2 [D,A,] | %3
 E,2 E, [E,B,]2 [E,G,] | [A,,A,]3- [A,,A,]2 [A,,A,] | [A,,A,]2 [A,,A,] [A,,A,]2 [A,,A,] | %6
 [D,F,]2 [D,F,] [D,A,]2 [D,A,] | [E,G,]2 [E,G,] (G,A,)[E,B,] | [A,,C]3- [A,,C]2 [A,C] | %9
 [E,B,]2 [E,A,] [E,G,]2 [D,G,] | [C,A,]2 [E,G,] A,2 A, | [G,B,]2 [G,B,] A,2 [C,A,] | %12
 [E,G,]3- [E,G,]2 [E,G,] | [A,,A,]2 [A,,A,] [A,,A,]2 [A,,A,] | %14
 [D,A,]2 [D,A,] !fermata![D,A,]2 [D,A,] | [E,G,]2 [E,G,] (G,A,)[E,B,] | [A,,A,]3- [A,,A,]2 |] %17
V:4
 x | x6 | x6 | E,2 E, x3 | x6 | x6 | x6 | x3 E,2 x | x6 | x6 | x3 A,2 A, | x3 A,2 x | x6 | x6 | %14
 x6 | x3 E,2 x | x5 |] %17

